X: 13
T: Missa Ave regina celorum &mdash; Sanctus
C: Gaspar van Weerbeke
%%abc-version 2.0
%%abcx-abcm2ps-target-version 5.9.1 (29 Sep 2008)
%%abc-creator hum2abc beta
%%abcx-conversion-date 2022/03/06 13:05:59
%%abc-copyright Copyright 2014, Pavanello, Agnese
%%abc-edited-by Mair-Gruber, Roland
%%humdrum-veritas 2237846971
%%humdrum-veritas-data 556142478
%%linebreak <none>
%%barnumbers 0
L: 1/4
M: 3/2
N: Derived from Gas0101d-Missa_Ave_regina_celorum-Sanctus.krn
%%staves [1 2 3 4]
V: 1 clef=treble-8
V: 2 clef=treble-8
V: 3 clef=bass
V: 4 clef=bass
K: F
[V:1] F6 | 
[V:2] F6- | 
[V:3] z6 | 
[V:4] z6 | 
[V:1] A>Bc>ABc- | 
[V:2] F2E>CDE- | 
[V:3] z6 | 
[V:4] z6 | 
[V:1] c/d/e2fd3/c/ | 
[V:2] EC2D2E | 
[V:3] z6 | 
[V:4] z6 | 
[V:1] A2GA2B | 
[V:2] F2zF2G | 
[V:3] z6 | 
[V:4] z6 | 
[V:1] AB2A2G | 
[V:2] FG2A2B | 
[V:3] z6 | 
[V:4] z6 | 
[V:1] AB>AFGF- | 
[V:2] A2GABc- | 
[V:3] z6 | 
[V:4] z6 | 
[V:1] FEFAG2 | 
[V:2] c/B/GAF2E | 
[V:3] z6 | 
[V:4] z2F,,2C,2 | 
[V:1] F2zf2e | 
[V:2] F/G/A/B/cBG2 | 
[V:3] z6 | 
[V:4] D,>C,A,,B,,C,2 | 
[V:1] f4z2 | 
[V:2] A>Bcd2c | 
[V:3] F,6- | 
[V:4] F,,>G,,A,,B,,2C, | 
[V:1] f>ecd2c | 
[V:2] A2cB2A | 
[V:3] F,6 | 
[V:4] D,2A,,B,,2F,, | 
[V:1] eg>fe/d<cB/ | 
[V:2] G2z2G2 | 
[V:3] E,6 | 
[V:4] C,4z2 | 
[V:1] d>ef2g3/f/ | 
[V:2] ABA>GEG- | 
[V:3] D,4E,2 | 
[V:4] F,2>D,2C,2- | 
[V:1] e/d/ef>edc/B/ | 
[V:2] G/F<AG/FB,3/A,/ | 
[V:3] C,3D,2E, | 
[V:4] C,A,,F,,2G,,2 | 
[V:1] A2z2f3/e/ | 
[V:2] C2zc2A- | 
[V:3] F,4z2 | 
[V:4] F,,6 | 
[V:1] fg>fga2 | 
[V:2] AB>AGFC- | 
[V:3] z2z2F,2- | 
[V:4] z_E,,2E,,F,,2 | 
[V:1] a2g>ab2 | 
[V:2] CDECD3/E/ | 
[V:3] F,2G,4 | 
[V:4] F,,2C,2B,,3/A,,/ | 
[V:1] a>gfe>fg | 
[V:2] F2c2AB | 
[V:3] A,4G,2 | 
[V:4] F,,>G,, A,,/B,,<C,B,,/G,, | 
[V:1] cd>cf2e | 
[V:2] AF2c3 | 
[V:3] A,B,2A,G,2 | 
[V:4] F,,B,,2F,,C,2 | 
[V:1] f4zf | 
[V:2] AA>GF/E/D2 | 
[V:3] F,2z2F,2 | 
[V:4] F,,4z2 | 
[V:1] gefd2c- | 
[V:2] C2zGAF | 
[V:3] E,2D,2E,C, | 
[V:4] z2B,,2A,,2 | 
[V:1] c=Bc2zB | 
[V:2] G2CcBG | 
[V:3] D,2C,F,2E, | 
[V:4] G,,2A,,F,,G,,2 | 
[V:1] cd2cdf | 
[V:2] AB2cBB- | 
[V:3] F,6 | 
[V:4] F,,B,,2A,,B,,D, | 
[V:1] e2dd>cB | 
[V:2] BAB2z2 | 
[V:3] z2F,2G,2 | 
[V:4] C,2B,,3A,,/G,,/ | 
[V:1] A2z2z2 | 
[V:2] z6 | 
[V:3] A,2G,>A,B,C- | 
[V:4] F,,2E,,>F,,G,,A,,- | 
[V:1] z6 | 
[V:2] z6 | 
[V:3] CB,A,B,G,2 | 
[V:4] A,,G,,F,,G,,E,,2 | 
[V:1] f2gaba- | 
[V:2] zFEFGA | 
[V:3] F,2z4 | 
[V:4] F,,2zF,E,F, | 
[V:1] aga>gec | 
[V:2] B2A>Bc2 | 
[V:3] z2F,2G,A, | 
[V:4] G,2D,2C,2 | 
[V:1] dAB2A2 | 
[V:2] z2d2d3/c/ | 
[V:3] B,A,2G,A,2 | 
[V:4] G,F,G,2D,3/E,/ | 
[V:1] zde>fga- | 
[V:2] AFGAGF | 
[V:3] z2C4 | 
[V:4] F,D,C,>D,E,F,- | 
[V:1] ag2f2e | 
[V:2] ABGc3 | 
[V:3] CB,2A,G,2 | 
[V:4] F,G,E,F,C,2 | 
[V:1] f2d>cAc- | 
[V:2] AFBGF3/G/ | 
[V:3] F,2G,2A,2 | 
[V:4] F,,2z2z2 | 
[V:1] c/B/A/G/F3A- | 
[V:2] A/B/c2d>ef- | 
[V:3] F,2z2F,2 | 
[V:4] z6 | 
[V:1] ABGcdf | 
[V:2] f/e/d2c2=B | 
[V:3] D,2E,2D,2 | 
[V:4] z6 | 
[V:1] e>fg2f2 | 
[V:2] c2c2A2 | 
[V:3] C,4D,3/E,/ | 
[V:4] z6 | 
[V:1] dc2f2e | 
[V:2] FA2Bc2 | 
[V:3] F,2E,F,G,2 | 
[V:4] F,,2C,D,C,2 | 
[V:1] f2z2z2 | 
[V:2] zAB/A/G/F/EF- | 
[V:3] F,2z2z2 | 
[V:4] F,,2G,,2A,,2 | 
[V:1] z6 | 
[V:2] F/E/DC2DE | 
[V:3] z2F,2G,2 | 
[V:4] B,,2A,,2G,,C,- | 
[V:1] zfg2a2 | 
[V:2] CF2EF2 | 
[V:3] A,2B,2A,2 | 
[V:4] C,/B,,/A,,G,,2F,,F, | 
[V:1] ba2f2e | 
[V:2] GA>Bc>de | 
[V:3] G,C2B,/A,/G,2 | 
[V:4] _E,F,>C,F,C,2 | 
[V:1] f6- | 
[V:2] ABcd>cB | 
[V:3] F,6- | 
[V:4] F,,B,,A,,B,,>F,,B,, | 
[V:1] f6 ||  
[V:2] c6 & A6 ||  
[V:3] F,6 ||  
[V:4] F,,6 ||  
[V:1] [M:2/2]f3e/d/ | 
[V:2] [M:2/2]F2F3/G/ | 
[V:3] [M:2/2]z4 | 
[V:4] [M:2/2]z4 | 
[V:1] cd2c | 
[V:2] AB2A/G/ | 
[V:3] z4 | 
[V:4] z4 | 
[V:1] ABG2 | 
[V:2] FGE2 | 
[V:3] z4 | 
[V:4] z4 | 
[V:1] z4 | 
[V:2] F2C2 | 
[V:3] z4 | 
[V:4] F,,2F,,3/G,,/ | 
[V:1] F2FG | 
[V:2] zD2C/B,/ | 
[V:3] z4 | 
[V:4] A,,B,,2A,,/G,,/ | 
[V:1] AB2A/G/ | 
[V:2] CB,_E2 | 
[V:3] z4 | 
[V:4] F,,G,,_E,,2 | 
[V:1] FGE2 | 
[V:2] C2z2 | 
[V:3] z4 | 
[V:4] F,,C,>B,,C, | 
[V:1] FA2B | 
[V:2] z4 | 
[V:3] z4 | 
[V:4] D,4 | 
[V:1] c>Bcd- | 
[V:2] z4 | 
[V:3] z4 | 
[V:4] C,>D,E,F,- | 
[V:1] d3c- | 
[V:2] z4 | 
[V:3] z4 | 
[V:4] F,G,2A,- | 
[V:1] c/d/ef2 | 
[V:2] z4 | 
[V:3] z4 | 
[V:4] A,G,F,D, | 
[V:1] g2a2 | 
[V:2] c>BA3/G/ | 
[V:3] z4 | 
[V:4] C,2F,2 | 
[V:1] gfab- | 
[V:2] EF2G- | 
[V:3] z4 | 
[V:4] C,D,>C,B,,/A,,/ | 
[V:1] b/a/g/f/g2 | 
[V:2] G/F/E/D/E2 | 
[V:3] z4 | 
[V:4] G,,C,>B,,C, | 
[V:1] zfed- | 
[V:2] F>GAD- | 
[V:3] z4 | 
[V:4] D,>C,A,,B,,- | 
[V:1] dc2B/A/ | 
[V:2] D/E/FC3/D/ | 
[V:3] z4 | 
[V:4] B,,F,,>G,,A,,/B,,/ | 
[V:1] G2zG- | 
[V:2] E4 | 
[V:3] z4 | 
[V:4] C,4 | 
[V:1] G/A/Bcd | 
[V:2] z2EF | 
[V:3] z4 | 
[V:4] z4 | 
[V:1] e2fe- | 
[V:2] GA>Bc- | 
[V:3] z4 | 
[V:4] z4 | 
[V:1] eg2a | 
[V:2] ce2d- | 
[V:3] z4 | 
[V:4] C,>D,E,F, | 
[V:1] bc'2a- | 
[V:2] dcF2 | 
[V:3] z4 | 
[V:4] G,A,>G,F,- | 
[V:1] a/g/f2e | 
[V:2] ABG2 | 
[V:3] z4 | 
[V:4] F,/E,/D,C,2 | 
[V:1] f2z2 | 
[V:2] F4- | 
[V:3] z4 | 
[V:4] zD,2C,/B,,/ | 
[V:1] c3d- | 
[V:2] F4 | 
[V:3] z4 | 
[V:4] A,,>G,,A,,B,,- | 
[V:1] dc/B/A2 | 
[V:2] z2c2- | 
[V:3] z4 | 
[V:4] B,,A,,/G,,/F,,2 | 
[V:1] FB2A/G/ | 
[V:2] cd2c/B/ | 
[V:3] z4 | 
[V:4] z2B,,3/C,/ | 
[V:1] Ff>ed/c/ | 
[V:2] A2FB- | 
[V:3] z4 | 
[V:4] D,E,F,G,- | 
[V:1] B2AB | 
[V:2] BA/G/FG- | 
[V:3] z4 | 
[V:4] G,F,/E,/D,B,, | 
[V:1] Gc2=B | 
[V:2] GED2 | 
[V:3] z4 | 
[V:4] C,2G,,2 | 
[V:1] c2z2 | 
[V:2] C4 | 
[V:3] z4 | 
[V:4] z2G,2 | 
[V:1] c>def | 
[V:2] zc>BA | 
[V:3] z4 | 
[V:4] A,A,2G,/F,/ | 
[V:1] gab2 | 
[V:2] GFG2 | 
[V:3] z4 | 
[V:4] E,F,2E, | 
[V:1] a>geg- | 
[V:2] Fc2B- | 
[V:3] z4 | 
[V:4] F,>E,C,_E,- | 
[V:1] g/f/fc3/B/ | 
[V:2] BA>GG | 
[V:3] z4 | 
[V:4] E,/D,/F,2C,- | 
[V:1] A/G/BAG- | 
[V:2] EFED- | 
[V:3] z4 | 
[V:4] C,D,C,B,,- | 
[V:1] GF2E | 
[V:2] DC2B, | 
[V:3] z4 | 
[V:4] B,,A,,G,,2 | 
[V:1] F4 ||  
[V:2] C4 ||  
[V:3] z4 ||  
[V:4] F,,4 ||  
[V:1] [M:3/2]f2f2f2 | 
[V:2] [M:3/2]F2F2F2 | 
[V:3] [M:3/2]F,2A,2B,2 | 
[V:4] [M:3/2]F,2F,2D,2 | 
[V:1] e2d4 | 
[V:2] G4F2 | 
[V:3] C4B,2 | 
[V:4] C,2D,4 | 
[V:1] e2c2d2 | 
[V:2] G2>A2B2 | 
[V:3] C4B,2 | 
[V:4] C,2>B,,2G,,2 | 
[V:1] f4e2 | 
[V:2] c4c2 | 
[V:3] A,2G,4 | 
[V:4] F,,2C,4 | 
[V:1] f4d2 | 
[V:2] A2c2B2 | 
[V:3] F,4G,2- | 
[V:4] F,,2A,,2B,,2 | 
[V:1] e2f3e | 
[V:2] G2F4 | 
[V:3] G,2A,4 | 
[V:4] C,2F,,4 | 
[V:1] c2A2c2 | 
[V:2] A2>G2E2 | 
[V:3] F,4z2 | 
[V:4] F,,2>G,,2A,,2 | 
[V:1] Bd2c2=B | 
[V:2] D2EG2F | 
[V:3] z6 | 
[V:4] B,,2C,E,D,2 | 
[V:1] c2>B2G2 | 
[V:2] GA>GF2E | 
[V:3] z6 | 
[V:4] C,2>F,,2C,2 | 
[V:1] F4f2- | 
[V:2] F2A4 | 
[V:3] F,4D,2- | 
[V:4] D,2>E,2F,2 | 
[V:1] fed2G2 | 
[V:2] F2B>AGE | 
[V:3] D,2F,2E,2 | 
[V:4] D,2B,,2C,2 | 
[V:1] c4=B2 | 
[V:2] F2G4 | 
[V:3] C,2D,4 | 
[V:4] A,,2G,,4 | 
[V:1] c2>B2AG/F/ | 
[V:2] E4C2 | 
[V:3] C,4z2 | 
[V:4] A,,4A,,2- | 
[V:1] E2F2G2 | 
[V:2] z2C>DE2 | 
[V:3] C,4C,2 | 
[V:4] A,,G,,F,,2E,,2 | 
[V:1] A2B3G | 
[V:2] C4B,2 | 
[V:3] F,4E,2 | 
[V:4] F,,2G,,4 | 
[V:1] Adcf2e | 
[V:2] CDEFC2 | 
[V:3] F,2A,2G,2 | 
[V:4] F,,B,,A,,F,,C,2 | 
[V:1] f4c2 | 
[V:2] c2A>Bc2 | 
[V:3] F,4z2 | 
[V:4] F,,4A,,2 | 
[V:1] d2c2B2 | 
[V:2] F2z2z2 | 
[V:3] F,4G,2 | 
[V:4] B,,2A,,2G,,2 | 
[V:1] ce2fd2 | 
[V:2] E4F2 | 
[V:3] A,4B,2 | 
[V:4] C,4B,,2 | 
[V:1] cg2ed2 | 
[V:2] E>FG2G2- | 
[V:3] A,2G,C2B, | 
[V:4] C,>D,E,C,G,,2 | 
[V:1] ea>gf2e | 
[V:2] GA2Bc2 | 
[V:3] C2F,2G,2 | 
[V:4] C,F,2D,C,2 | 
[V:1] f4z2 | 
[V:2] A4A2 | 
[V:3] F,4z2 | 
[V:4] F,,4z2 | 
[V:1] c4B2 | 
[V:2] A4B2 | 
[V:3] z6 | 
[V:4] F,,4G,,2 | 
[V:1] A4G2 | 
[V:2] c2F2D2 | 
[V:3] F,4G,2 | 
[V:4] A,,4B,,2 | 
[V:1] c4B2 | 
[V:2] E2F4 | 
[V:3] A,4B,2 | 
[V:4] A,,2D,4 | 
[V:1] c2d4 | 
[V:2] E2D4 | 
[V:3] A,4G,2 | 
[V:4] C,2B,,4 | 
[V:1] c2A2F2 | 
[V:2] E4D2 | 
[V:3] A,4A,2 | 
[V:4] A,,4z2 | 
[V:1] G4A2 | 
[V:2] E4A2- | 
[V:3] z2z2C2- | 
[V:4] C,4A,,2 | 
[V:1] z6 | 
[V:2] A2B2c2- | 
[V:3] C2B,2A,2 | 
[V:4] F,,2G,,2A,,2- | 
[V:1] z6 | 
[V:2] c2B2d2 | 
[V:3] F,2G,4 | 
[V:4] A,,2B,,4 | 
[V:1] a4g2 | 
[V:2] c2>A2B2 | 
[V:3] A,4z2 | 
[V:4] A,,4E,,2 | 
[V:1] a2b4 | 
[V:2] A2z2z2 | 
[V:3] A,4G,2 | 
[V:4] F,,4E,,2 | 
[V:1] a2>f2g2 | 
[V:2] A4G2 | 
[V:3] A,2B,4 | 
[V:4] F,,2z2z2 | 
[V:1] f4e2 | 
[V:2] A2B4 | 
[V:3] A,2G,4 | 
[V:4] z6 | 
[V:1] f4z2 | 
[V:2] A4G2 | 
[V:3] F,2>G,2E,2 | 
[V:4] F,,4C,2 | 
[V:1] z6 | 
[V:2] F4E2 | 
[V:3] F,2G,4 | 
[V:4] D,2C,4 | 
[V:1] c4d2 | 
[V:2] F4z2 | 
[V:3] F,4F,2 | 
[V:4] F,,2A,,2B,,2 | 
[V:1] f2ed2c | 
[V:2] z6 | 
[V:3] A,2G,4 | 
[V:4] F,,2C,B,,2B,, | 
[V:1] c4=B2 | 
[V:2] G4G2 | 
[V:3] E,2D,4 | 
[V:4] C,2G,,4 | 
[V:1] c6 | 
[V:2] E2F2A2 | 
[V:3] C,2F,4 | 
[V:4] G,2A,4 | 
[V:1] z2f4 | 
[V:2] B2c3B | 
[V:3] G,2A,4 | 
[V:4] G,2F,2F,,2 | 
[V:1] g2a4 | 
[V:2] G2F2C2 | 
[V:3] B,2A,2C2 | 
[V:4] E,,2F,,2A,,2 | 
[V:1] f2e2c2 | 
[V:2] z2G2A2- | 
[V:3] D2C4 | 
[V:4] B,,2C,2A,,2 | 
[V:1] fg2f2e | 
[V:2] AG2c3 | 
[V:3] A,B,2A,G,2 | 
[V:4] G,,_E,2F,C,2 | 
[V:1] f6 ||  
[V:2] c6 & A6 ||  
[V:3] F,6 ||  
[V:4] F,,6 ||  
[V:1] [M:4/4]z4 | 
[V:2] [M:4/4]C4 | 
[V:3] [M:4/4]z4 | 
[V:4] [M:4/4]z4 | 
[V:1] z4 | 
[V:2] C2D2 | 
[V:3] z4 | 
[V:4] F,,4 | 
[V:1] z4 | 
[V:2] CF2E | 
[V:3] z4 | 
[V:4] F,,2G,,2 | 
[V:1] z4 | 
[V:2] FA2G | 
[V:3] z4 | 
[V:4] F,,2F,E, | 
[V:1] z4 | 
[V:2] AB2A | 
[V:3] z4 | 
[V:4] C,D,2C, | 
[V:1] z4 | 
[V:2] BGA3/B/ | 
[V:3] z4 | 
[V:4] D,E,C,2 | 
[V:1] z4 | 
[V:2] c2F2 | 
[V:3] z4 | 
[V:4] F,,2zF,- | 
[V:1] z4 | 
[V:2] z2c2- | 
[V:3] z4 | 
[V:4] F,/G,/A,2G,/F,/ | 
[V:1] z4 | 
[V:2] cBA2 | 
[V:3] z4 | 
[V:4] A,G,2F,- | 
[V:1] z4 | 
[V:2] G2zF- | 
[V:3] z4 | 
[V:4] F,E,F,3/E,/ | 
[V:1] z4 | 
[V:2] F/G/ABA- | 
[V:3] z4 | 
[V:4] D,C,B,,C,- | 
[V:1] z4 | 
[V:2] AF2E | 
[V:3] z4 | 
[V:4] C,A,,G,,2 | 
[V:1] c4 | 
[V:2] F2z2 | 
[V:3] z4 | 
[V:4] F,,4- | 
[V:1] c2d2 | 
[V:2] F4 | 
[V:3] z4 | 
[V:4] F,,4 | 
[V:1] cf2e | 
[V:2] F2G2 | 
[V:3] z4 | 
[V:4] z4 | 
[V:1] f>ed3/B/ | 
[V:2] FB2A/G/ | 
[V:3] z4 | 
[V:4] z4 | 
[V:1] cd2c/B/ | 
[V:2] AB>cd/e/ | 
[V:3] z4 | 
[V:4] z4 | 
[V:1] AdcB- | 
[V:2] f3e/d/ | 
[V:3] z4 | 
[V:4] F,,>G,,A,,B,, | 
[V:1] BABc | 
[V:2] c2BG | 
[V:3] z4 | 
[V:4] C,2D,E, | 
[V:1] ABG2 | 
[V:2] F_E3 | 
[V:3] z4 | 
[V:4] F,G,>A,B,/C/ | 
[V:1] FB>cd/e/ | 
[V:2] FGEF | 
[V:3] z4 | 
[V:4] A,G,2F,- | 
[V:1] fgab/a/ | 
[V:2] AGFB | 
[V:3] z4 | 
[V:4] F,E,F,G, | 
[V:1] g/f/f2e | 
[V:2] cAG2 | 
[V:3] z4 | 
[V:4] E,F,C,2 | 
[V:1] f2z2 | 
[V:2] F4 | 
[V:3] z4 | 
[V:4] F,,4- | 
[V:1] f3e/d/ | 
[V:2] z2F2- | 
[V:3] z4 | 
[V:4] F,,4 | 
[V:1] cfed- | 
[V:2] FE/D/CF- | 
[V:3] z4 | 
[V:4] z4 | 
[V:1] dc2=B | 
[V:2] FED2 | 
[V:3] z4 | 
[V:4] z4 | 
[V:1] c2c2 | 
[V:2] C>DEF- | 
[V:3] z4 | 
[V:4] z4 | 
[V:1] zcef | 
[V:2] F/G/AGF | 
[V:3] z4 | 
[V:4] F,>E,C,F, | 
[V:1] gfde | 
[V:2] c2Bc | 
[V:3] z4 | 
[V:4] E,D,2C,- | 
[V:1] cf2e | 
[V:2] ABG2 | 
[V:3] z4 | 
[V:4] C,B,,C,2 | 
[V:1] !fermata!e4 | 
[V:2] !fermata!c4 | 
[V:3] z4 | 
[V:4] !fermata!C,4 | 
[V:1] z4 | 
[V:2] c2c2 | 
[V:3] z4 | 
[V:4] z4 | 
[V:1] z4 | 
[V:2] A2F2 | 
[V:3] z4 | 
[V:4] z4 | 
[V:1] z4 | 
[V:2] G2G2 | 
[V:3] z4 | 
[V:4] C,2C,2 | 
[V:1] f2f2 | 
[V:2] F2zA | 
[V:3] z4 | 
[V:4] A,,2F,,2 | 
[V:1] d2B2 | 
[V:2] GB2A/G/ | 
[V:3] z4 | 
[V:4] G,,2G,,2 | 
[V:1] c2c2 | 
[V:2] A3G/F/ | 
[V:3] z4 | 
[V:4] F,,2zF,, | 
[V:1] Bc2A | 
[V:2] GA2F- | 
[V:3] z4 | 
[V:4] B,,A,,F,,2 | 
[V:1] G2F2 | 
[V:2] FEF2 | 
[V:3] z4 | 
[V:4] C,2F,,2 | 
[V:1] B4 | 
[V:2] G4 | 
[V:3] z4 | 
[V:4] _E,,4 | 
[V:1] A2F2 | 
[V:2] F2A2 | 
[V:3] z4 | 
[V:4] F,,4 | 
[V:1] zBcd | 
[V:2] G>FED | 
[V:3] z4 | 
[V:4] G,,2A,,B,, | 
[V:1] efd3/c/ | 
[V:2] CF2E | 
[V:3] z4 | 
[V:4] C,A,,G,,2 | 
[V:1] A>Bcd- | 
[V:2] F2zF | 
[V:3] z4 | 
[V:4] F,,>G,,A,,B,,- | 
[V:1] dc2=B | 
[V:2] GED2 | 
[V:3] z4 | 
[V:4] B,,C,G,,2 | 
[V:1] c3A | 
[V:2] C4 | 
[V:3] z4 | 
[V:4] A,,F,,>G,,A,, | 
[V:1] FB3 | 
[V:2] D4 | 
[V:3] z4 | 
[V:4] B,,G,,>A,,B,, | 
[V:1] Gc2A | 
[V:2] E4 | 
[V:3] z4 | 
[V:4] C,A,,>B,,C, | 
[V:1] F2f2 | 
[V:2] F4 | 
[V:3] z4 | 
[V:4] D,B,,>C,D, | 
[V:1] e>fg2 | 
[V:2] GAGc | 
[V:3] z4 | 
[V:4] E,C,>D,E, | 
[V:1] cf2e | 
[V:2] AFG2 | 
[V:3] z4 | 
[V:4] F,D,C,2 | 
[V:1] f3e/d/ | 
[V:2] F4- | 
[V:3] z4 | 
[V:4] z2F,,3/G,,/ | 
[V:1] cd2e- | 
[V:2] F2G2 | 
[V:3] z4 | 
[V:4] A,,B,,>G,,C,- | 
[V:1] ef2g- | 
[V:2] A2B2- | 
[V:3] z4 | 
[V:4] C,/A,,<D,B,,/_E,- | 
[V:1] g/f/de2 | 
[V:2] B2A2 | 
[V:3] z4 | 
[V:4] E,/D,/B,,C,2 | 
[V:1] df>ec | 
[V:2] B2A3/B/ | 
[V:3] z4 | 
[V:4] B,,>C, D,/E,/F,- | 
[V:1] Ac2B/A/ | 
[V:2] cA2G/F/ | 
[V:3] z4 | 
[V:4] F,F,,>G,,A,,/B,,/ | 
[V:1] !fermata!G4 |]  
[V:2] !fermata!E4 |]  
[V:3] z4 |]  
[V:4] !fermata!C,4 |]  


